X:0591
T:Air de Chasse.
M:6/8
L:1/8
Q:3/8=120
I: :: ||
Z:Jack Campin * www.campin.me.uk * 2009
K:A
c|A2c A2c|(e2d) B3|c2c BAB|A3 A2:|
B|B2c A2B|(d2c) B3|cde edc|c3 B2
c|A2c A2c|(e2d) B3|c2c BAB|A3 A2|]

